X:2768
T:Catherine McRitchie
S:Elizabeth Creasey
R:Other
O:Scotland
M:3/4
K:G
B3A B<d|G3 AB2|c3d e2|d4 c2|B3A G2|\
M:2/4
G2A2 B2G2|\
M:3/4
B4 A2|A4 dc|
B3G E2|EF GA BG|E4 B2|c3F FE|D2B3c|B4 AF|G6- ::
G4 F2|\
E3GB2|e3f e2|fB3 G2|A4 GA|\
B3c B2|BA GA BG| B4 A2|A3 d dc|
B3G E2|EF GA BG|E4 B2|c3 F FE|D2 B3c|B4 AF|G6 :|


